; generated by PrusaSlicer 2.1.1+win64 on 2020-02-20 at 18:55:58 UTC

; 

; external perimeters extrusion width = 0.45mm
; perimeters extrusion width = 0.45mm
; infill extrusion width = 0.45mm
; solid infill extrusion width = 0.45mm
; top infill extrusion width = 0.45mm
; support material extrusion width = 0.35mm
; first layer extrusion width = 0.42mm

M73 P0 R12
M201 X9000 Y9000 Z500 E10000 ; sets maximum accelerations, mm/sec^2
M203 X500 Y500 Z12 E120 ; sets maximum feedrates, mm/sec
M204 P2000 R1500 T2000 ; sets acceleration (P, T) and retract acceleration (R), mm/sec^2
M205 X10.00 Y10.00 Z0.20 E2.50 ; sets the jerk limits, mm/sec
M205 S0 T0 ; sets the minimum extruding and travel feed rate, mm/sec
M107
M862.3 P "MK2S" ; printer model check
M862.1 P0.4 ; nozzle diameter check
M115 U3.2.3 ; tell printer latest fw version
G90 ; use absolute coordinates
M83 ; extruder relative mode
M204 S2000 T1500 ; MK2 firmware only supports the old M204 format
M104 S215 ; set extruder temp
M140 S60 ; set bed temp
M190 S60 ; wait for bed temp
M109 S215 ; wait for extruder temp
G28 W ; home all without mesh bed level
G80 ; mesh bed leveling
G1 Y-3.0 F1000.0 ; go outside print area
G92 E0.0
G1 X60.0 E9.0  F1000.0 ; intro line
M73 P0 R12
G1 X100.0 E12.5 F1000.0 ; intro line
G92 E0.0
G21 ; set units to millimeters
G90 ; use absolute coordinates
M83 ; use relative distances for extrusion
M900 K30 ; Filament gcode
;BEFORE_LAYER_CHANGE
G92 E0.0
;0.2


G1 E-0.80000 F2100.00000
G1 Z0.600 F10800.000
;AFTER_LAYER_CHANGE
;0.2
G1 X106.528 Y86.811
G1 Z0.200
G1 E0.80000 F2100.00000
M204 S1000
G1 F1200
G1 X106.875 Y86.112 E0.02447
G1 X107.209 Y85.727 E0.01598
G1 X107.609 Y85.417 E0.01586
G1 X108.550 Y85.060 E0.03156
G1 X122.611 Y82.878 E0.44615
G1 X126.348 Y82.858 E0.11719
G1 X126.986 Y82.940 E0.02017
G1 X142.130 Y86.945 E0.49112
G1 X142.901 Y87.323 E0.02692
G1 X143.501 Y87.931 E0.02680
G1 X143.813 Y88.529 E0.02116
G1 X143.958 Y89.192 E0.02128
G1 X144.332 Y97.819 E0.27076
G1 X144.329 Y106.413 E0.26946
G1 X144.193 Y107.126 E0.02275
G1 X143.864 Y107.772 E0.02275
G1 X143.197 Y108.424 E0.02924
G1 X142.345 Y108.794 E0.02912
G1 X126.804 Y111.727 E0.49586
G1 X122.936 Y111.704 E0.12130
G1 X108.901 Y109.525 E0.44532
G1 X108.358 Y109.368 E0.01771
G1 X107.860 Y109.094 E0.01783
G1 X107.424 Y108.706 E0.01832
G1 X107.085 Y108.225 E0.01845
G1 X106.865 Y107.683 E0.01832
G1 X106.774 Y107.105 E0.01834
G1 X106.408 Y98.420 E0.27257
G1 X106.407 Y87.578 E0.33992
G1 X106.519 Y86.871 E0.02247
G1 F8640
G1 X106.875 Y86.112 E-0.19348
G1 X107.209 Y85.727 E-0.11768
G1 X107.609 Y85.417 E-0.11677
G1 X108.550 Y85.060 E-0.23240
G1 X108.976 Y84.994 E-0.09968
G1 E-0.04000 F2100.00000
G1 Z0.800 F10800.000
G1 X107.819 Y85.731
G1 Z0.200
G1 E0.80000 F2100.00000
G1 F1200
G1 X108.625 Y85.430 E0.02698
G1 X122.655 Y83.252 E0.44518
G1 X126.348 Y83.236 E0.11578
G1 X126.894 Y83.306 E0.01726
G1 X142.014 Y87.304 E0.49036
G1 X142.672 Y87.622 E0.02293
G1 X143.188 Y88.140 E0.02293
G1 X143.460 Y88.660 E0.01839
G1 X143.583 Y89.234 E0.01839
G1 X143.955 Y97.827 E0.26969
G1 X143.953 Y106.386 E0.26836
G1 X143.836 Y107.005 E0.01976
G1 X143.546 Y107.568 E0.01987
G1 X142.976 Y108.119 E0.02484
G1 X142.247 Y108.430 E0.02484
G1 X126.785 Y111.350 E0.49338
G1 X122.992 Y111.331 E0.11893
G1 X108.969 Y109.154 E0.44494
G1 X108.496 Y109.017 E0.01544
G1 X108.063 Y108.776 E0.01555
G1 X107.455 Y108.113 E0.02822
G1 X107.165 Y107.264 E0.02810
G1 X106.786 Y98.456 E0.27645
G1 X106.785 Y87.517 E0.34297
G1 X106.900 Y86.887 E0.02010
G1 X107.193 Y86.317 E0.02010
G1 X107.775 Y85.772 E0.02499
G1 F8640
G1 X108.625 Y85.430 E-0.21156
G1 X110.972 Y85.065 E-0.54844
G1 E-0.04000 F2100.00000
G1 Z0.800 F10800.000
G1 X110.092 Y106.295
G1 Z0.200
G1 E0.80000 F2100.00000
G1 F1200
G1 X110.092 Y95.549 E0.33693
G1 X109.338 Y95.549 E0.02365
G1 X109.338 Y106.997 E0.35895
G1 F8640
G1 X109.338 Y103.705 E-0.76000
G1 E-0.04000 F2100.00000
G1 Z0.800 F10800.000
G1 X117.633 Y105.528
G1 Z0.200
G1 E0.80000 F2100.00000
G1 F1200
G1 X117.633 Y106.125 E0.01870
G1 X116.879 Y106.125 E0.02365
G1 X116.879 Y104.074 E0.06431
G1 X116.313 Y102.550 E0.05097
G1 X116.125 Y102.550 E0.00588
G1 X116.125 Y106.125 E0.11208
G1 X115.371 Y106.125 E0.02365
G1 X115.371 Y102.550 E0.11208
G1 X114.617 Y102.550 E0.02365
G1 X114.617 Y106.125 E0.11208
G1 X113.862 Y106.125 E0.02365
G1 X113.862 Y102.550 E0.11208
G1 X113.108 Y102.550 E0.02365
G1 X113.108 Y106.125 E0.11208
G1 X112.354 Y106.125 E0.02365
G1 X112.354 Y102.550 E0.11208
G1 X111.600 Y102.550 E0.02365
G1 X111.600 Y106.125 E0.11208
G1 X110.846 Y106.125 E0.02365
G1 X110.846 Y95.549 E0.33161
G1 X111.600 Y95.549 E0.02365
G1 X111.600 Y100.423 E0.15284
G1 X112.354 Y100.423 E0.02365
G1 X112.354 Y95.549 E0.15284
G1 X113.108 Y95.549 E0.02365
G1 X113.108 Y100.423 E0.15284
G1 X113.862 Y100.423 E0.02365
G1 X113.862 Y95.549 E0.15284
G1 X114.617 Y95.549 E0.02365
G1 X114.617 Y100.423 E0.15284
G1 X115.371 Y100.423 E0.02365
G1 X115.371 Y95.549 E0.15284
G1 X116.125 Y95.549 E0.02365
G1 X116.125 Y100.423 E0.15284
G1 X116.879 Y100.423 E0.02365
G1 X116.879 Y95.549 E0.15284
G1 X117.633 Y95.549 E0.02365
G1 X117.633 Y100.658 E0.16019
G1 X118.387 Y103.962 E0.10626
G1 X118.387 Y95.549 E0.26379
G1 X119.142 Y95.549 E0.02365
G1 X119.142 Y105.218 E0.30317
G1 F8640
G1 X119.142 Y101.926 E-0.76000
G1 E-0.04000 F2100.00000
G1 Z0.800 F10800.000
G1 X132.716 Y106.295
G1 Z0.200
G1 E0.80000 F2100.00000
G1 F1200
G1 X132.716 Y105.162 E0.03553
G1 X133.471 Y103.133 E0.06784
G1 X133.471 Y106.125 E0.09380
G1 X134.225 Y106.125 E0.02365
G1 X134.225 Y102.550 E0.11208
G1 X134.979 Y102.550 E0.02365
G1 X134.979 Y106.125 E0.11208
G1 X135.733 Y106.125 E0.02365
G1 X135.733 Y102.550 E0.11208
G1 X136.487 Y102.550 E0.02365
G1 X136.487 Y106.125 E0.11208
G1 X137.241 Y106.125 E0.02365
G1 X137.241 Y102.550 E0.11208
G1 X137.996 Y102.550 E0.02365
G1 X137.996 Y106.295 E0.11740
G1 X141.766 Y106.295 F10800.000
G1 F1200
G1 X141.766 Y97.867 E0.26426
G1 X141.012 Y97.867 E0.02365
G1 X141.012 Y106.125 E0.25894
G1 X140.258 Y106.125 E0.02365
G1 X140.258 Y97.867 E0.25894
G1 X140.066 Y97.867 E0.00602
G1 X140.066 Y95.549 E0.07267
G1 X139.504 Y95.549 E0.01763
G1 X139.504 Y106.125 E0.33161
G1 X138.750 Y106.125 E0.02365
G1 X138.750 Y95.549 E0.33161
G1 X137.996 Y95.549 E0.02365
G1 X137.996 Y100.423 E0.15284
G1 X137.241 Y100.423 E0.02365
G1 X137.241 Y95.549 E0.15284
G1 X136.487 Y95.549 E0.02365
G1 X136.487 Y100.423 E0.15284
G1 X135.733 Y100.423 E0.02365
G1 X135.733 Y95.549 E0.15284
G1 X134.979 Y95.549 E0.02365
G1 X134.979 Y100.423 E0.15284
G1 X134.225 Y100.423 E0.02365
G1 X134.225 Y95.549 E0.15284
G1 X133.471 Y95.549 E0.02365
G1 X133.471 Y100.423 E0.15284
G1 X132.716 Y100.423 E0.02365
G1 X132.716 Y95.549 E0.15284
G1 X131.962 Y95.549 E0.02365
G1 X131.962 Y102.430 E0.21574
G1 X131.600 Y104.015 E0.05100
G1 X131.208 Y104.507 E0.01972
G1 X131.208 Y95.549 E0.28089
G1 X130.454 Y95.549 E0.02365
G1 X130.454 Y105.453 E0.31054
G1 X129.918 Y106.125 E0.02695
G1 X129.700 Y106.125 E0.00684
G1 X129.700 Y95.379 E0.33693
G1 F8640
G1 X129.700 Y98.670 E-0.76000
G1 E-0.04000 F2100.00000
G1 Z0.800 F10800.000
G1 X116.782 Y101.424
G1 Z0.200
G1 E0.80000 F2100.00000
G1 F1200
G1 X116.811 Y101.550 E0.00405
G1 X112.187 Y101.550 E0.14497
G1 X112.187 Y101.424 E0.00395
G1 X116.722 Y101.424 E0.14218
G1 F8640
G1 X116.811 Y101.550 E-0.03555
G1 X113.673 Y101.550 E-0.72445
G1 E-0.04000 F2100.00000
G1 Z0.800 F10800.000
G1 X133.189 Y101.550
G1 Z0.200
G1 E0.80000 F2100.00000
G1 F1200
G1 X133.218 Y101.424 E0.00405
G1 X137.813 Y101.424 E0.14406
G1 X137.813 Y101.550 E0.00395
G1 X133.249 Y101.550 E0.14308
G1 X133.254 Y101.927 F10800.000
G1 F1200
G1 X132.027 Y105.227 E0.11041
G1 X129.729 Y107.640 E0.10448
G1 X126.666 Y108.953 E0.10448
G1 X123.334 Y108.953 E0.10448
G1 X120.271 Y107.640 E0.10448
G1 X117.973 Y105.227 E0.10448
G1 X116.746 Y101.927 E0.11041
G1 X111.810 Y101.927 E0.15476
G1 X111.810 Y101.047 E0.02759
G1 X117.083 Y101.047 E0.16532
G1 X117.823 Y104.293 E0.10440
G1 X120.034 Y107.064 E0.11115
G1 X123.228 Y108.603 E0.11115
G1 X126.772 Y108.603 E0.11115
G1 X129.966 Y107.064 E0.11115
G1 X132.177 Y104.293 E0.11115
G1 X132.917 Y101.047 E0.10440
G1 X138.190 Y101.047 E0.16532
G1 X138.190 Y101.927 E0.02759
G1 X133.314 Y101.927 E0.15288
G1 X132.860 Y101.856 F10800.000
G1 X133.036 Y101.738
G1 F1200
G1 X132.953 Y102.018 E0.00370
G1 X132.869 Y102.299 E0.00287
G1 X132.785 Y102.579 E0.00205
G1 F8640
G1 X132.869 Y102.299 E-0.06751
G1 E-0.73249 F2100.00000
G1 Z0.800 F10800.000
G1 X131.893 Y104.985
G1 Z0.200
G1 E0.80000 F2100.00000
G1 F1200
G1 X131.827 Y105.102 E0.00096
G1 X131.550 Y105.420 E0.00298
G1 F8640
G1 X131.827 Y105.102 E-0.09721
G1 X131.893 Y104.985 E-0.03120
G1 E-0.67159 F2100.00000
G1 Z0.800 F10800.000
G1 X118.450 Y105.420
G1 Z0.200
G1 E0.80000 F2100.00000
G1 F1200
G1 X118.173 Y105.102 E0.00298
G1 X118.107 Y104.985 E0.00096
G1 F8640
G1 X118.173 Y105.102 E-0.03120
G1 X118.450 Y105.420 E-0.09721
G1 E-0.67159 F2100.00000
G1 Z0.800 F10800.000
G1 X117.215 Y102.579
G1 Z0.200
G1 E0.80000 F2100.00000
G1 F1200
G1 X116.964 Y101.738 E0.00615
G1 F8640
G1 X117.215 Y102.579 E-0.20253
G1 E-0.59747 F2100.00000
G1 Z0.800 F10800.000
G1 X118.777 Y97.835
G1 Z0.200
G1 E0.80000 F2100.00000
G1 F1200
G1 X118.777 Y89.642 E0.25691
G1 X118.035 Y90.572 E0.03731
G1 X118.023 Y90.625 E0.00172
G1 X118.023 Y97.666 E0.22074
G1 X117.268 Y97.666 E0.02365
G1 X117.268 Y93.930 E0.11714
G1 X117.256 Y93.984 E0.00173
G1 X117.030 Y94.164 E0.00907
G1 X116.514 Y94.164 E0.01617
G1 X116.514 Y97.666 E0.10979
G1 X115.760 Y97.666 E0.02365
G1 X115.760 Y94.164 E0.10979
G1 X115.006 Y94.164 E0.02365
G1 X115.006 Y97.666 E0.10979
G1 X114.252 Y97.666 E0.02365
G1 X114.252 Y94.164 E0.10979
G1 X113.498 Y94.164 E0.02365
G1 X113.498 Y97.666 E0.10979
G1 X112.743 Y97.666 E0.02365
G1 X112.743 Y94.164 E0.10979
G1 X111.989 Y94.164 E0.02365
G1 X111.989 Y97.666 E0.10979
G1 X111.235 Y97.666 E0.02365
G1 X111.235 Y94.164 E0.10979
G1 X111.064 Y94.164 E0.00537
G1 X110.822 Y93.922 E0.01074
G1 X110.822 Y92.279 E0.05150
G1 X111.064 Y92.037 E0.01074
G1 X111.235 Y92.037 E0.00537
G1 X111.235 Y89.407 E0.08245
G1 X111.989 Y89.408 E0.02365
G1 X111.989 Y92.037 E0.08241
G1 X112.743 Y92.037 E0.02365
G1 X112.743 Y89.410 E0.08238
G1 X113.498 Y89.411 E0.02365
G1 X113.498 Y92.037 E0.08235
G1 X114.252 Y92.037 E0.02365
G1 X114.252 Y89.412 E0.08231
G1 X115.006 Y89.413 E0.02365
G1 X115.006 Y92.037 E0.08228
G1 X115.760 Y92.037 E0.02365
G1 X115.760 Y89.414 E0.08225
G1 X116.514 Y89.415 E0.02365
G1 X116.514 Y91.000 E0.04971
G1 F8640
G1 X116.514 Y89.415 E-0.36608
G1 X115.760 Y89.414 E-0.17414
G1 X115.760 Y90.366 E-0.21978
G1 E-0.04000 F2100.00000
G1 Z0.800 F10800.000
G1 X108.973 Y87.590
G1 Z0.200
G1 E0.80000 F2100.00000
G1 F1200
G1 X108.973 Y98.371 E0.33801
G1 X109.678 Y97.666 E0.03126
G1 X109.727 Y97.666 E0.00154
G1 X109.727 Y88.584 E0.28473
G1 X110.481 Y89.339 E0.03344
G1 X110.481 Y97.835 E0.26641
G1 F8640
G1 X110.481 Y94.544 E-0.76000
G1 E-0.04000 F2100.00000
G1 Z0.800 F10800.000
G1 X129.335 Y97.835
G1 Z0.200
G1 E0.80000 F2100.00000
G1 F1200
G1 X129.335 Y90.260 E0.23752
G1 X130.089 Y90.175 E0.02380
G1 X130.089 Y97.666 E0.23487
G1 X130.843 Y97.666 E0.02365
G1 X130.843 Y90.080 E0.23784
G1 X131.235 Y90.572 E0.01972
G1 X131.597 Y92.158 E0.05100
G1 X131.597 Y97.666 E0.17270
G1 X132.352 Y97.666 E0.02365
G1 X132.352 Y94.164 E0.10979
G1 X133.106 Y94.164 E0.02365
G1 X133.106 Y97.666 E0.10979
G1 X133.860 Y97.666 E0.02365
G1 X133.860 Y94.164 E0.10979
G1 X134.614 Y94.164 E0.02365
G1 X134.614 Y97.666 E0.10979
G1 X135.368 Y97.666 E0.02365
G1 X135.368 Y94.164 E0.10979
G1 X136.122 Y94.164 E0.02365
G1 X136.122 Y97.666 E0.10979
G1 X136.877 Y97.666 E0.02365
G1 X136.877 Y94.164 E0.10979
G1 X137.631 Y94.164 E0.02365
G1 X137.631 Y97.835 E0.11511
G1 X141.402 Y97.835 F10800.000
G1 F1200
G1 X141.402 Y89.405 E0.26434
G1 X140.647 Y89.406 E0.02365
G1 X140.647 Y97.666 E0.25899
G1 X139.893 Y97.666 E0.02365
G1 X139.893 Y89.406 E0.25896
G1 X139.139 Y89.407 E0.02365
G1 X139.139 Y97.666 E0.25893
G1 X138.385 Y97.666 E0.02365
G1 X138.385 Y89.408 E0.25891
G1 X137.631 Y89.409 E0.02365
G1 X137.631 Y92.037 E0.08240
G1 X136.877 Y92.037 E0.02365
G1 X136.877 Y89.410 E0.08237
G1 X136.122 Y89.411 E0.02365
G1 X136.122 Y92.037 E0.08234
G1 X135.368 Y92.037 E0.02365
G1 X135.368 Y89.412 E0.08232
G1 X134.614 Y89.412 E0.02365
G1 X134.614 Y92.037 E0.08229
G1 X133.860 Y92.037 E0.02365
G1 X133.860 Y89.413 E0.08226
G1 X133.106 Y89.414 E0.02365
G1 X133.106 Y91.454 E0.06395
G1 X132.352 Y89.426 E0.06784
G1 X132.352 Y89.245 E0.00565
G1 F8640
G1 X132.352 Y89.426 E-0.04165
G1 X133.106 Y91.454 E-0.49962
G1 X133.106 Y90.507 E-0.21873
G1 E-0.04000 F2100.00000
G1 Z0.800 F10800.000
G1 X116.446 Y93.038
G1 Z0.200
G1 E0.80000 F2100.00000
G1 F1200
G1 X116.417 Y93.163 E0.00405
G1 X111.822 Y93.163 E0.14406
G1 X111.822 Y93.038 E0.00395
G1 X116.386 Y93.038 E0.14308
G1 F8640
G1 X116.417 Y93.163 E-0.02994
G1 X113.255 Y93.163 E-0.73006
G1 E-0.04000 F2100.00000
G1 Z0.800 F10800.000
G1 X132.825 Y93.038
G1 Z0.200
G1 E0.80000 F2100.00000
G1 F1200
G1 X137.448 Y93.038 E0.14497
G1 X137.448 Y93.163 E0.00395
G1 X132.853 Y93.163 E0.14406
G1 X132.838 Y93.096 E0.00217
G1 X132.889 Y92.660 F10800.000
G1 F1200
G1 X137.825 Y92.660 E0.15476
G1 X137.825 Y93.540 E0.02759
G1 X132.553 Y93.540 E0.16532
G1 X131.812 Y90.294 E0.10440
G1 X129.601 Y87.523 E0.11115
G1 X126.408 Y85.985 E0.11115
G1 X122.863 Y85.985 E0.11115
G1 X119.669 Y87.523 E0.11115
G1 X117.459 Y90.294 E0.11115
G1 X116.718 Y93.540 E0.10440
G1 X111.445 Y93.540 E0.16532
G1 X111.445 Y92.660 E0.02759
G1 X116.381 Y92.660 E0.15476
G1 X117.608 Y89.360 E0.11041
G1 X119.906 Y86.947 E0.10448
G1 X122.969 Y85.634 E0.10448
G1 X126.301 Y85.634 E0.10448
G1 X129.364 Y86.947 E0.10448
M73 P8 R11
G1 X131.662 Y89.360 E0.10448
G1 X132.868 Y92.604 E0.10853
G1 X132.962 Y93.054 F10800.000
G1 X132.588 Y92.569
G1 F1200
G1 X132.504 Y92.289 E0.00287
G1 X132.421 Y92.009 E0.00205
G1 X132.588 Y92.569 F10800.000
G1 F1200
G1 X132.671 Y92.849 E0.00370
G1 F8640
G1 X132.588 Y92.569 E-0.06751
G1 E-0.73249 F2100.00000
G1 Z0.800 F10800.000
G1 X131.528 Y89.603
G1 Z0.200
G1 E0.80000 F2100.00000
G1 F1200
G1 X131.462 Y89.485 E0.00096
G1 X131.185 Y89.168 E0.00298
G1 F8640
G1 X131.462 Y89.485 E-0.09721
G1 X131.528 Y89.603 E-0.03120
G1 E-0.67159 F2100.00000
G1 Z0.800 F10800.000
G1 X118.085 Y89.168
G1 Z0.200
G1 E0.80000 F2100.00000
G1 F1200
G1 X117.808 Y89.485 E0.00298
G1 X117.742 Y89.603 E0.00096
G1 F8640
G1 X117.808 Y89.485 E-0.03120
G1 X118.085 Y89.168 E-0.09721
G1 E-0.67159 F2100.00000
G1 Z0.800 F10800.000
G1 X116.850 Y92.009
G1 Z0.200
G1 E0.80000 F2100.00000
G1 F1200
G1 X116.599 Y92.849 E0.00615
M106 S255
;BEFORE_LAYER_CHANGE
G92 E0.0
;0.35


G1 F8640
G1 X116.850 Y92.009 E-0.20253
G1 E-0.59747 F2100.00000
G1 Z0.800 F10800.000
;AFTER_LAYER_CHANGE
;0.35
M104 S210 ; set temperature
G1 X143.197 Y108.424
G1 Z0.350
G1 E0.80000 F2100.00000
G1 F959
G1 X142.345 Y108.794 E0.02246
G1 X126.804 Y111.727 E0.38248
G1 X122.936 Y111.704 E0.09356
G1 X108.901 Y109.525 E0.34350
G1 X108.358 Y109.368 E0.01366
G1 X107.860 Y109.094 E0.01375
G1 X107.424 Y108.706 E0.01413
G1 X107.085 Y108.225 E0.01423
G1 X106.865 Y107.683 E0.01413
G1 X106.774 Y107.105 E0.01415
G1 X106.408 Y98.420 E0.21025
G1 X106.407 Y87.578 E0.26219
G1 X106.528 Y86.811 E0.01878
G1 X106.875 Y86.112 E0.01888
G1 X107.209 Y85.727 E0.01233
G1 X107.609 Y85.417 E0.01223
G1 X108.550 Y85.060 E0.02434
G1 X122.611 Y82.878 E0.34414
G1 X126.348 Y82.858 E0.09039
G1 X126.986 Y82.940 E0.01556
G1 X142.130 Y86.945 E0.37883
G1 X142.901 Y87.323 E0.02077
G1 X143.501 Y87.931 E0.02067
G1 X143.813 Y88.529 E0.01632
G1 X143.958 Y89.192 E0.01641
G1 X144.332 Y97.819 E0.20885
G1 X144.329 Y106.413 E0.20784
G1 X144.193 Y107.126 E0.01755
G1 X143.864 Y107.772 E0.01755
G1 X143.240 Y108.383 E0.02110
G1 F8640
G1 X142.345 Y108.794 E-0.22745
G1 X140.078 Y109.222 E-0.53255
G1 E-0.04000 F2100.00000
G1 Z0.950 F10800.000
G1 X116.741 Y101.494
G1 Z0.350
G1 E0.80000 F2100.00000
M204 S800
G1 F959
G1 X112.243 Y101.494 E0.11720
G1 X112.243 Y101.480 E0.00037
G1 X116.692 Y101.480 E0.11593
M204 S1000
G1 F8640
G1 X113.401 Y101.490 E-0.76000
G1 E-0.04000 F2100.00000
G1 Z0.950 F10800.000
