; generated by PrusaSlicer 2.1.1+win64 on 2020-02-11 at 20:15:28 UTC

; 

; external perimeters extrusion width = 0.45mm
; perimeters extrusion width = 0.45mm
; infill extrusion width = 0.45mm
; solid infill extrusion width = 0.45mm
; top infill extrusion width = 0.45mm
; first layer extrusion width = 0.42mm

M73 P0 R178
M201 X9000 Y9000 Z500 E10000 ; sets maximum accelerations, mm/sec^2
M203 X500 Y500 Z12 E120 ; sets maximum feedrates, mm/sec
M204 P2000 R1500 T2000 ; sets acceleration (P, T) and retract acceleration (R), mm/sec^2
M205 X10.00 Y10.00 Z0.20 E2.50 ; sets the jerk limits, mm/sec
M205 S0 T0 ; sets the minimum extruding and travel feed rate, mm/sec
M107
M862.3 P "MK2S" ; printer model check
M862.1 P0.4 ; nozzle diameter check
M115 U3.2.3 ; tell printer latest fw version
G90 ; use absolute coordinates
M83 ; extruder relative mode
M204 S2000 T1500 ; MK2 firmware only supports the old M204 format
M104 S215 ; set extruder temp
M140 S60 ; set bed temp
M190 S60 ; wait for bed temp
M109 S215 ; wait for extruder temp
G28 W ; home all without mesh bed level
G80 ; mesh bed leveling
G1 Y-3.0 F1000.0 ; go outside print area
G92 E0.0
G1 X60.0 E9.0  F1000.0 ; intro line
M73 P0 R178
G1 X100.0 E12.5 F1000.0 ; intro line
G92 E0.0
G21 ; set units to millimeters
G90 ; use absolute coordinates
M83 ; use relative distances for extrusion
M900 K30 ; Filament gcode
;BEFORE_LAYER_CHANGE
G92 E0.0
;0.2


G1 E-0.80000 F2100.00000
G1 Z0.600 F10800.000
;AFTER_LAYER_CHANGE
;0.2
G1 X110.778 Y57.233
G1 Z0.200
G1 E0.80000 F2100.00000
M204 S1000
G1 F1200
G1 X111.577 Y57.015 E0.02597
G1 X143.666 Y54.750 E1.00865
G1 X182.747 Y54.749 E1.22536
G1 X183.523 Y54.892 E0.02473
G1 X184.197 Y55.301 E0.02473
G1 X184.683 Y55.923 E0.02473
G1 X184.917 Y56.676 E0.02473
G1 X189.272 Y108.783 E1.63948
G1 X189.272 Y115.816 E0.22051
G1 X189.178 Y116.428 E0.01942
G1 X184.059 Y128.233 E0.40343
G1 X183.641 Y128.829 E0.02281
G1 X183.051 Y129.254 E0.02281
G1 X182.587 Y129.420 E0.01544
G1 X182.099 Y129.479 E0.01544
G1 X151.604 Y129.479 E0.95614
G1 X151.079 Y129.415 E0.01658
G1 X150.585 Y129.227 E0.01658
G1 X150.104 Y128.885 E0.01851
G1 X110.238 Y91.267 E1.71861
G1 X109.779 Y90.643 E0.02428
G1 X109.613 Y90.180 E0.01544
G1 X109.555 Y89.691 E0.01544
G1 X109.556 Y59.132 E0.95816
G1 X109.654 Y58.546 E0.01862
G1 X109.904 Y58.011 E0.01851
G1 X110.288 Y57.563 E0.01851
G1 X110.728 Y57.267 E0.01663
G1 F8640
G1 X111.577 Y57.015 E-0.20443
G1 X113.977 Y56.846 E-0.55557
G1 E-0.04000 F2100.00000
G1 Z0.800 F10800.000
G1 X182.554 Y110.990
G1 Z0.200
G1 E0.80000 F2100.00000
G1 F1200
G1 X183.043 Y110.501 E0.02171
G1 X183.660 Y110.186 E0.02171
G1 X184.322 Y110.081 E0.02102
G1 X185.027 Y110.186 E0.02233
G1 X185.644 Y110.501 E0.02174
G1 X186.134 Y110.990 E0.02171
G1 X186.438 Y111.587 E0.02102
G1 X186.557 Y112.290 E0.02233
G1 X186.448 Y112.974 E0.02174
G1 X186.134 Y113.591 E0.02171
G1 X185.644 Y114.081 E0.02171
G1 X185.028 Y114.395 E0.02171
G1 X184.344 Y114.503 E0.02171
G1 X183.660 Y114.395 E0.02171
G1 X183.043 Y114.081 E0.02171
G1 X182.554 Y113.591 E0.02171
G1 X182.240 Y112.974 E0.02171
G1 X182.131 Y112.291 E0.02171
G1 X182.240 Y111.607 E0.02171
G1 X182.527 Y111.044 E0.01982
G1 X182.391 Y110.625 F10800.000
G1 F8640
G1 X183.043 Y110.501 E-0.17307
G1 X183.660 Y110.186 E-0.15984
G1 X184.322 Y110.081 E-0.15478
G1 X185.027 Y110.186 E-0.16443
G1 X185.443 Y110.398 E-0.10787
G1 E-0.04000 F2100.00000
G1 Z0.800 F10800.000
G1 X170.962 Y117.299
G1 Z0.200
G1 E0.80000 F2100.00000
G1 F1200
G1 X171.494 Y118.220 E0.03337
G1 X171.823 Y119.232 E0.03337
G1 X171.934 Y120.291 E0.03337
G1 X171.823 Y121.349 E0.03337
G1 X171.494 Y122.361 E0.03337
G1 X170.962 Y123.283 E0.03337
G1 X170.283 Y124.036 E0.03180
G1 X169.392 Y124.698 E0.03481
G1 X168.417 Y125.132 E0.03346
G1 X167.376 Y125.353 E0.03337
G1 X166.312 Y125.353 E0.03337
G1 X165.271 Y125.132 E0.03337
G1 X164.299 Y124.699 E0.03337
G1 X163.478 Y124.103 E0.03180
G1 X162.727 Y123.285 E0.03481
G1 X162.194 Y122.361 E0.03346
G1 X161.865 Y121.349 E0.03337
G1 X161.754 Y120.291 E0.03337
G1 X161.865 Y119.232 E0.03337
G1 X162.194 Y118.220 E0.03337
G1 X162.726 Y117.299 E0.03337
G1 X163.438 Y116.508 E0.03337
G1 X164.299 Y115.882 E0.03337
G1 X165.271 Y115.449 E0.03337
G1 X166.312 Y115.228 E0.03337
G1 X167.376 Y115.228 E0.03337
G1 X168.417 Y115.449 E0.03337
G1 X169.389 Y115.882 E0.03337
G1 X170.250 Y116.508 E0.03337
G1 X170.922 Y117.254 E0.03148
G1 X170.642 Y117.506 F10800.000
G1 F1200
G1 X171.148 Y118.374 E0.03151
G1 X171.452 Y119.311 E0.03088
G1 X171.555 Y120.291 E0.03088
G1 X171.452 Y121.270 E0.03088
G1 X171.148 Y122.207 E0.03088
G1 X170.655 Y123.060 E0.03088
G1 X170.028 Y123.756 E0.02937
G1 X169.200 Y124.370 E0.03233
G1 X168.300 Y124.771 E0.03091
G1 X167.336 Y124.976 E0.03088
G1 X166.351 Y124.976 E0.03088
G1 X165.388 Y124.771 E0.03088
G1 X164.488 Y124.371 E0.03088
G1 X163.730 Y123.820 E0.02937
G1 X163.033 Y123.061 E0.03233
G1 X162.540 Y122.207 E0.03091
G1 X162.236 Y121.270 E0.03088
G1 X162.133 Y120.291 E0.03088
G1 X162.236 Y119.311 E0.03088
G1 X162.540 Y118.374 E0.03088
G1 X163.033 Y117.521 E0.03088
G1 X163.692 Y116.790 E0.03088
G1 X164.488 Y116.211 E0.03088
G1 X165.388 Y115.810 E0.03088
G1 X166.351 Y115.605 E0.03088
G1 X167.336 Y115.605 E0.03088
G1 X168.300 Y115.810 E0.03088
G1 X169.200 Y116.211 E0.03088
G1 X169.996 Y116.790 E0.03088
G1 X170.602 Y117.462 E0.02836
G1 X171.039 Y117.463 F10800.000
G1 F8640
G1 X171.148 Y118.374 E-0.24560
G1 X171.452 Y119.311 E-0.22742
G1 X171.555 Y120.291 E-0.22742
G1 X171.528 Y120.547 E-0.05957
G1 E-0.04000 F2100.00000
G1 Z0.800 F10800.000
G1 X181.497 Y109.378
G1 Z0.200
G1 E0.80000 F2100.00000
G1 F1200
G1 X186.497 Y109.378 E0.15677
G1 X186.497 Y110.872 E0.04684
G1 X186.443 Y110.766 E0.00373
G1 X185.869 Y110.192 E0.02545
G1 X185.143 Y109.822 E0.02554
G1 X184.320 Y109.700 E0.02607
G1 X183.542 Y109.823 E0.02470
G1 X182.819 Y110.192 E0.02545
G1 X182.245 Y110.766 E0.02545
G1 X181.877 Y111.489 E0.02545
G1 X181.750 Y112.291 E0.02545
G1 X181.877 Y113.092 E0.02545
G1 X182.245 Y113.816 E0.02545
G1 X182.819 Y114.390 E0.02545
G1 X183.542 Y114.758 E0.02545
G1 X184.344 Y114.885 E0.02545
G1 X185.146 Y114.758 E0.02545
G1 X185.869 Y114.390 E0.02545
G1 X186.443 Y113.816 E0.02545
G1 X186.497 Y113.710 E0.00373
G1 X186.497 Y115.204 E0.04684
G1 X181.497 Y115.204 E0.15677
G1 X181.497 Y126.704 E0.36057
G1 X152.191 Y126.704 E0.91886
G1 X152.191 Y115.204 E0.36057
G1 X147.191 Y115.204 E0.15677
G1 X147.191 Y113.710 E0.04684
G1 X147.245 Y113.816 E0.00373
G1 X147.819 Y114.390 E0.02545
G1 X148.542 Y114.758 E0.02545
G1 X149.344 Y114.885 E0.02545
G1 X150.146 Y114.758 E0.02545
G1 X150.869 Y114.390 E0.02545
G1 X151.443 Y113.816 E0.02545
G1 X151.811 Y113.092 E0.02545
G1 X151.938 Y112.291 E0.02545
G1 X151.811 Y111.489 E0.02545
G1 X151.443 Y110.766 E0.02545
G1 X150.869 Y110.192 E0.02545
G1 X150.143 Y109.822 E0.02554
G1 X149.320 Y109.700 E0.02607
G1 X148.542 Y109.823 E0.02470
G1 X147.819 Y110.192 E0.02545
G1 X147.245 Y110.766 E0.02545
G1 X147.191 Y110.872 E0.00373
G1 X147.191 Y109.378 E0.04684
G1 X152.191 Y109.378 E0.15677
G1 X152.191 Y96.078 E0.41701
G1 X181.497 Y96.078 E0.91886
G1 X181.497 Y109.318 E0.41513
G1 F8640
G1 X184.788 Y109.357 E-0.76000
G1 E-0.04000 F2100.00000
G1 Z0.800 F10800.000
G1 X151.557 Y112.291
G1 Z0.200
G1 E0.80000 F2100.00000
G1 F1200
G1 X151.448 Y112.974 E0.02171
G1 X151.134 Y113.591 E0.02171
G1 X150.644 Y114.081 E0.02171
G1 X150.028 Y114.395 E0.02171
G1 X149.344 Y114.503 E0.02171
G1 X148.660 Y114.395 E0.02171
G1 X148.043 Y114.081 E0.02171
G1 X147.554 Y113.591 E0.02171
G1 X147.250 Y112.994 E0.02102
G1 X147.131 Y112.292 E0.02233
G1 X147.240 Y111.607 E0.02174
G1 X147.554 Y110.990 E0.02171
G1 X148.043 Y110.501 E0.02171
G1 X148.660 Y110.186 E0.02171
G1 X149.322 Y110.081 E0.02102
G1 X150.027 Y110.186 E0.02233
G1 X150.644 Y110.501 E0.02174
G1 X151.134 Y110.990 E0.02171
G1 X151.448 Y111.607 E0.02171
G1 X151.547 Y112.231 E0.01982
G1 X151.903 Y112.491 F10800.000
G1 F8640
G1 X151.448 Y112.974 E-0.17307
G1 X151.134 Y113.591 E-0.15984
G1 X150.644 Y114.081 E-0.15984
G1 X150.028 Y114.395 E-0.15984
G1 X149.568 Y114.468 E-0.10739
G1 E-0.04000 F2100.00000
G1 Z0.800 F10800.000
G1 X181.874 Y109.001
G1 Z0.200
G1 E0.80000 F2100.00000
G1 F1200
G1 X186.874 Y109.001 E0.15677
G1 X186.874 Y115.581 E0.20631
G1 X181.874 Y115.581 E0.15677
G1 X181.874 Y127.081 E0.36057
G1 X151.814 Y127.081 E0.94251
G1 X151.814 Y115.581 E0.36057
G1 X146.814 Y115.581 E0.15677
G1 X146.814 Y109.001 E0.20631
G1 X151.814 Y109.001 E0.15677
G1 X151.814 Y95.701 E0.41701
G1 X181.874 Y95.701 E0.94251
G1 X181.874 Y108.941 E0.41513
G1 X182.024 Y109.371 F10800.000
G1 X182.113 Y109.491
G1 F1200
G1 X182.616 Y109.994 E0.02246
G1 X182.348 Y110.263 E0.01197
G1 X181.746 Y109.660 E0.02686
G1 X181.214 Y109.660 E0.01678
G1 X181.214 Y109.128 E0.01678
G1 X168.446 Y96.360 E0.56961
G1 X168.983 Y96.360 E0.01693
G1 X181.214 Y108.592 E0.54567
G1 X181.214 Y108.055 E0.01693
G1 X169.519 Y96.360 E0.52174
G1 X170.056 Y96.360 E0.01693
G1 X181.214 Y107.519 E0.49780
G1 X181.214 Y106.982 E0.01693
G1 X170.592 Y96.360 E0.47387
G1 X171.129 Y96.360 E0.01693
G1 X181.214 Y106.446 E0.44993
G1 X181.214 Y105.909 E0.01693
G1 X171.665 Y96.360 E0.42599
G1 X172.202 Y96.360 E0.01693
G1 X181.214 Y105.373 E0.40206
G1 X181.214 Y104.836 E0.01693
G1 X172.738 Y96.360 E0.37812
G1 X173.275 Y96.360 E0.01693
G1 X181.214 Y104.300 E0.35419
G1 X181.214 Y103.763 E0.01693
G1 X173.811 Y96.360 E0.33025
G1 X174.348 Y96.360 E0.01693
G1 X181.214 Y103.227 E0.30632
G1 X181.214 Y102.690 E0.01693
G1 X174.884 Y96.360 E0.28238
G1 X175.421 Y96.360 E0.01693
G1 X181.214 Y102.154 E0.25844
G1 X181.214 Y101.617 E0.01693
G1 X175.958 Y96.360 E0.23451
G1 X176.494 Y96.360 E0.01693
G1 X181.214 Y101.080 E0.21057
G1 X181.214 Y100.544 E0.01693
G1 X177.031 Y96.360 E0.18664
G1 X177.567 Y96.360 E0.01693
G1 X181.214 Y100.007 E0.16270
G1 X181.214 Y99.471 E0.01693
G1 X178.104 Y96.360 E0.13876
G1 X178.640 Y96.360 E0.01693
G1 X181.214 Y98.934 E0.11483
G1 X181.214 Y98.398 E0.01693
G1 X179.177 Y96.360 E0.09089
G1 X179.713 Y96.360 E0.01693
G1 X181.214 Y97.861 E0.06696
G1 X181.214 Y97.325 E0.01693
G1 X180.250 Y96.360 E0.04302
G1 X180.786 Y96.360 E0.01693
G1 X181.384 Y96.958 E0.02665
G1 F8640
G1 X180.786 Y96.360 E-0.19510
G1 X180.250 Y96.360 E-0.12389
G1 X181.214 Y97.325 E-0.31489
G1 X181.214 Y97.861 E-0.12389
G1 X181.207 Y97.854 E-0.00223
G1 E-0.04000 F2100.00000
G1 Z0.800 F10800.000
G1 X183.021 Y109.677
G1 Z0.200
G1 E0.80000 F2100.00000
G1 F1200
G1 X183.664 Y109.589 E0.00410
G1 F8640
G1 X183.021 Y109.677 E-0.14988
G1 E-0.65012 F2100.00000
G1 Z0.800 F10800.000
G1 X185.021 Y109.590
G1 Z0.200
G1 E0.80000 F2100.00000
G1 F1200
G1 X185.667 Y109.675 E0.00422
G1 F8640
G1 X185.021 Y109.590 E-0.15046
G1 E-0.64954 F2100.00000
G1 Z0.800 F10800.000
G1 X186.575 Y111.047
G1 Z0.200
G1 E0.80000 F2100.00000
G1 F1200
G1 X186.662 Y111.643 E0.00333
G1 F8640
G1 X186.575 Y111.047 E-0.13911
G1 E-0.66089 F2100.00000
G1 Z0.800 F10800.000
G1 X186.662 Y112.977
G1 Z0.200
G1 E0.80000 F2100.00000
G1 F1200
G1 X186.578 Y113.535 E0.00276
G1 F8640
G1 X186.662 Y112.977 E-0.13024
G1 E-0.66976 F2100.00000
G1 Z0.800 F10800.000
G1 X185.984 Y114.434
G1 Z0.200
G1 E0.80000 F2100.00000
G1 F1200
G1 X186.384 Y114.834 E0.01915
G1 X185.667 Y114.904 F10800.000
G1 F1200
G1 X185.024 Y114.992 E0.00431
G1 F8640
G1 X185.667 Y114.904 E-0.14988
G1 E-0.65012 F2100.00000
G1 Z0.800 F10800.000
G1 X183.664 Y114.992
G1 Z0.200
G1 E0.80000 F2100.00000
G1 F1200
G1 X183.021 Y114.904 E0.00410
G1 F8640
G1 X183.664 Y114.992 E-0.14988
G1 E-0.65012 F2100.00000
G1 Z0.800 F10800.000
G1 X182.200 Y110.651
G1 Z0.200
G1 E0.80000 F2100.00000
G1 F1200
G1 X167.910 Y96.360 E0.63753
G1 X167.373 Y96.360 E0.01693
G1 X181.877 Y110.865 E0.64707
G1 X181.696 Y111.220 E0.01258
G1 X166.837 Y96.360 E0.66292
G1 X166.300 Y96.360 E0.01693
G1 X181.568 Y111.629 E0.68115
G1 X181.495 Y112.092 E0.01479
G1 X165.763 Y96.360 E0.70181
M73 P0 R177
G1 X165.227 Y96.360 E0.01693
G1 X181.521 Y112.654 E0.72691
G1 X181.604 Y113.181 E0.01681
G1 X181.701 Y113.371 E0.00675
G1 X164.690 Y96.360 E0.75890
G1 X164.154 Y96.360 E0.01693
G1 X182.714 Y114.921 E0.82802
G1 X182.178 Y114.921 E0.01693
G1 X163.617 Y96.360 E0.82802
G1 X163.081 Y96.360 E0.01693
G1 X181.641 Y114.921 E0.82802
G1 X181.214 Y114.921 E0.01347
G1 X181.214 Y115.030 E0.00345
G1 X162.544 Y96.360 E0.83291
G1 X162.008 Y96.360 E0.01693
G1 X181.214 Y115.567 E0.85684
G1 X181.214 Y116.103 E0.01693
G1 X161.471 Y96.360 E0.88078
G1 X160.935 Y96.360 E0.01693
G1 X181.214 Y116.640 E0.90471
G1 X181.214 Y117.176 E0.01693
G1 X160.398 Y96.360 E0.92865
G1 X159.862 Y96.360 E0.01693
G1 X181.214 Y117.713 E0.95258
G1 X181.214 Y118.249 E0.01693
G1 X159.325 Y96.360 E0.97652
G1 X158.789 Y96.360 E0.01693
G1 X181.214 Y118.786 E1.00046
G1 X181.214 Y119.322 E0.01693
G1 X158.252 Y96.360 E1.02439
G1 X157.716 Y96.360 E0.01693
G1 X181.214 Y119.859 E1.04833
G1 X181.214 Y120.396 E0.01693
G1 X157.179 Y96.360 E1.07226
G1 X156.642 Y96.360 E0.01693
G1 X181.214 Y120.932 E1.09620
G1 X181.214 Y121.469 E0.01693
G1 X156.106 Y96.360 E1.12014
G1 X155.569 Y96.360 E0.01693
G1 X181.214 Y122.005 E1.14407
G1 X181.214 Y122.542 E0.01693
G1 X155.033 Y96.360 E1.16801
G1 X154.496 Y96.360 E0.01693
G1 X181.214 Y123.078 E1.19194
G1 X181.214 Y123.615 E0.01693
G1 X153.960 Y96.360 E1.21588
G1 X153.423 Y96.360 E0.01693
G1 X181.214 Y124.151 E1.23982
G1 X181.214 Y124.688 E0.01693
G1 X152.887 Y96.360 E1.26375
G1 X152.474 Y96.360 E0.01303
G1 X152.474 Y96.484 E0.00390
G1 X181.214 Y125.224 E1.28218
G1 X181.214 Y125.761 E0.01693
G1 X152.474 Y97.021 E1.28218
G1 X152.474 Y97.557 E0.01693
G1 X181.214 Y126.297 E1.28218
G1 X181.214 Y126.421 E0.00389
G1 X180.801 Y126.421 E0.01303
G1 X152.474 Y98.094 E1.26375
G1 X152.474 Y98.630 E0.01693
G1 X169.438 Y115.595 E0.75683
G1 X168.481 Y115.174 E0.03298
G1 X152.474 Y99.167 E0.71413
G1 X152.474 Y99.703 E0.01693
G1 X167.800 Y115.029 E0.68373
G1 X167.406 Y114.945 E0.01271
G1 X167.179 Y114.945 E0.00714
G1 X152.474 Y100.240 E0.65606
G1 X152.474 Y100.776 E0.01693
G1 X166.643 Y114.945 E0.63212
G1 X166.282 Y114.945 E0.01138
G1 X166.137 Y114.976 E0.00467
G1 X152.474 Y101.313 E0.60956
G1 X152.474 Y101.849 E0.01693
G1 X165.695 Y115.070 E0.58982
G1 X165.252 Y115.164 E0.01427
G1 X152.474 Y102.386 E0.57008
G1 X152.474 Y102.922 E0.01693
G1 X164.870 Y115.318 E0.55302
G1 X164.499 Y115.484 E0.01282
G1 X152.474 Y103.459 E0.53646
G1 X152.474 Y103.995 E0.01693
G1 X164.132 Y115.654 E0.52011
G1 X163.821 Y115.880 E0.01212
G1 X152.474 Y104.532 E0.50625
G1 X152.474 Y105.068 E0.01693
G1 X163.511 Y116.105 E0.49238
G1 X163.209 Y116.340 E0.01206
G1 X152.474 Y105.605 E0.47891
M73 P1 R176
G1 X152.474 Y106.142 E0.01693
G1 X162.954 Y116.622 E0.46757
G1 X162.700 Y116.904 E0.01198
G1 X152.474 Y106.678 E0.45622
G1 X152.474 Y107.215 E0.01693
G1 X162.457 Y117.198 E0.44539
G1 X162.261 Y117.538 E0.01239
G1 X152.474 Y107.751 E0.43663
G1 X152.474 Y108.288 E0.01693
G1 X162.065 Y117.878 E0.42787
G1 X161.934 Y118.105 E0.00824
G1 X161.890 Y118.240 E0.00450
G1 X152.474 Y108.824 E0.42007
G1 X152.474 Y109.361 E0.01693
G1 X161.758 Y118.645 E0.41420
G1 X161.627 Y119.050 E0.01343
G1 X152.237 Y109.660 E0.41890
G1 X151.701 Y109.660 E0.01693
G1 X161.551 Y119.511 E0.43946
G1 X161.500 Y119.997 E0.01540
G1 X150.994 Y109.491 E0.46869
G1 X150.667 Y109.675 F10800.000
G1 F1200
G1 X150.021 Y109.590 E0.00422
G1 F8640
G1 X150.667 Y109.675 E-0.15046
G1 E-0.64954 F2100.00000
G1 Z0.800 F10800.000
G1 X148.664 Y109.589
G1 Z0.200
G1 E0.80000 F2100.00000
G1 F1200
G1 X148.021 Y109.677 E0.00410
G1 X147.704 Y110.147 F10800.000
G1 F1200
G1 X147.304 Y109.747 E0.01915
G1 F8640
G1 X147.704 Y110.147 E-0.13054
G1 E-0.66946 F2100.00000
G1 Z0.800 F10800.000
G1 X147.110 Y111.046
G1 Z0.200
G1 E0.80000 F2100.00000
G1 F1200
G1 X147.026 Y111.604 E0.00276
G1 F8640
G1 X147.110 Y111.046 E-0.13024
G1 E-0.66976 F2100.00000
G1 Z0.800 F10800.000
G1 X147.026 Y112.938
G1 Z0.200
G1 E0.80000 F2100.00000
G1 F1200
G1 X147.113 Y113.534 E0.00350
G1 F8640
G1 X147.026 Y112.938 E-0.13911
G1 E-0.66089 F2100.00000
G1 Z0.800 F10800.000
G1 X148.021 Y114.904
G1 Z0.200
G1 E0.80000 F2100.00000
G1 F1200
G1 X148.664 Y114.992 E0.00410
G1 F8640
G1 X148.021 Y114.904 E-0.14988
